X: 29136
T: Nervous Man, The
R: reel
M: 4/4
K: Dmixolydian
FAGE FD~D2|A,DFA d^cAB|c2G=F EC~C2|G,CEG cedc|
A2GE FD~D2|A,DFA dAFA|GCEG cedc|1 cAGE D2 AG:|2 cAGE D2 dc||
K: Dmaj
|:Ad~d2 cdec|d2AG EFGE|Ad~d2 cdec|d2ce defe|
d2AG EADA|EAGE DCA,B,|=C2EG cedc|1 =cAGE D2 d^c:|2 =cAGE D2 AG||

